X: 1064
T: Amanda Lynn's
R: jig
M: 6/8
K: Gmajor
|:BAG ABc|Bcd ecA|dBG AFD|CEG FGA|
B2B Bcd|efg afd|cdB AGF|1 GDE FGA:|2 GAB cde||
|:fBB fga|gfe dcB|cde dcB|cdB ABc|
dBG dBG|cde dcB|cdB AGF|1 GAB cde:|2 GDE FGA||

